X: 24262
T: Lord Seaforth
R: strathspey
M: 4/4
K: Amixolydian
|:a|cAeA cA g2|BGdG BBBa|cAeA cA g2|e2 dB cAA:|
e|a2 ea gaef|g2 dg Bgde|a2 ea gaea|gedB cAAe|
a2 ea gaef|g2 dg Bgde|afge fdea|gedB cAAe||

